assets/images/gps.svg

<svg width="24" height="24" viewBox="0 0 24 24" fill="none" xmlns="http://www.w3.org/2000/svg">
<path d="M11.9996 1C7.03747 1 3 4.63349 3 9.0996C3 10.2645 3.26494 11.3768 3.78708 12.4057C6.03724 16.8369 10.3514 21.5154 11.6203 22.8435C11.7154 22.9428 11.854 23 11.9999 23C12.1457 23 12.2843 22.9428 12.3794 22.8435C13.6478 21.5156 17.962 16.8374 20.2129 12.4057C20.7353 11.3768 21 10.2645 21 9.0996C20.9995 4.63349 16.962 1 11.9996 1ZM11.9996 13.3066C9.42198 13.3066 7.32468 11.4191 7.32468 9.09937C7.32468 6.77941 9.42198 4.89197 11.9996 4.89197C14.5773 4.89197 16.6746 6.77941 16.6746 9.09937C16.6748 11.4191 14.5775 13.3066 11.9996 13.3066Z" fill="white"/>
</svg>

<svg xmlns="http://www.w3.org/2000/svg" width="24" height="24" fill="none"><path fill="#fff" d="M12 1C7.037 1 3 4.633 3 9.1c0 1.165.265 2.277.787 3.306 2.25 4.43 6.564 9.11 7.833 10.437.095.1.234.157.38.157a.53.53 0 0 0 .38-.157c1.268-1.327 5.582-6.006 7.833-10.437A7.24 7.24 0 0 0 21 9.1C21 4.633 16.962 1 12 1m0 12.307c-2.578 0-4.675-1.888-4.675-4.208S9.422 4.892 12 4.892s4.675 1.887 4.675 4.207-2.097 4.208-4.675 4.208"/></svg>
